X: 24175
T: Lord Donne's
R: strathspey
M: 4/4
K: Gdorian
|:g|d<Gc>A F>GA>c|d<Gd>c d>ef>a|f<dc>A F>GA>c|d<Bc>A G2 G:|
|:A|G<gg<a f>cf<a|g2 g2 f>ga>g|f<dc>A F>GA>c|d<Bc>A G2 G:|

